X:8
T:Glen Cottage
R:strathspey
C:J. Scott Skinner
O:19th century Scotland
D:Howie, Dave  & Mac
Z:Paul Stewart Cranford (P.S.C.), <http://www.cranfordpub.com>
L:1/8
M:C
Q:244
K:Bb
z|F>GB>c B3 g|f<dc<B G3 B|F<GB>c B>df>g|f<gd>c c<BB>G|
F>GB>c  d/c/B/A/ B>g|f<dc<B G3 B|F>GB>c B/c/d/e/ f<b|f<B({B/c/}d)>c B3||
||z|f>dB>f g<eb>g|f>dc<B c3 g|f>dB>d g<be<g|f<B({B/c/}d)>c B3 g|
f>dB>d e/f/g/a/ b>g|f<dc<B c2 c<d|F>GB>c B/c/d/e/ f<b|f<B({B/c/}d)>c B3|]

